packages/core/src/svgs/tokens/mono/LM.svg

<svg width="24" height="24" viewBox="0 0 24 24" fill="none" xmlns="http://www.w3.org/2000/svg">
<path d="M3.57886 7.26343L6.73677 8.84239V14.6319L3.57886 16.2109V7.26343Z" fill="white"/>
<path d="M20.421 7.78931L17.2629 9.36826V15.1578L20.421 16.7367V7.78931Z" fill="white"/>
<path d="M6.73677 8.84218L3.57886 7.26322L12 2L19.8948 6.7369L16.7369 8.31586L12 5.68425L6.73677 8.84218Z" fill="white"/>
<path d="M17.2632 15.158L20.4212 16.7369L12 22.0001L4.10522 17.2633L7.26315 15.6843L12 18.3159L17.2632 15.158Z" fill="white"/>
<path d="M15.6844 9.36865H8.31592L12.0002 11.7371L15.6844 9.36865Z" fill="white"/>
<path d="M12.0002 16.2109V11.7371L15.6845 9.36865L12.0002 16.2109Z" fill="white"/>
</svg>

<svg xmlns="http://www.w3.org/2000/svg" width="24" height="24" fill="none" viewBox="0 0 24 24">
    <path fill="#fff" d="m3.579 7.263 3.158 1.58v5.789L3.579 16.21zm16.842.527-3.158 1.578v5.79l3.158 1.579zM6.737 8.842 3.579 7.263 12 2l7.895 4.737-3.158 1.579L12 5.684z"/>
    <path fill="#fff" d="m17.263 15.158 3.158 1.579L12 22l-7.895-4.737 3.158-1.579L12 18.316zm-1.579-5.789H8.316L12 11.737z"/>
    <path fill="#fff" d="M12 16.21v-4.473l3.685-2.368z"/>
</svg>
